assets/logo.svg

<?xml version="1.0" encoding="UTF-8"?>
<svg viewBox="0 0 374 50" xmlns="http://www.w3.org/2000/svg">
<path d="m104.44 25.84c0 4-1.187 7.1867-3.56 9.56-2.6667 2.8267-6.1733 4.24-10.52 4.24-4.16 0-7.68-1.44-10.56-4.32s-4.32-6.4267-4.32-10.64 1.44-7.76 4.32-10.64 6.4-4.32 10.56-4.32c2.1067 0 4.0933 0.3733 5.96 1.12s3.4 1.8 4.6 3.16l-2.64 2.64c-0.88-1.0667-2.0267-1.8933-3.44-2.48-1.3867-0.6133-2.88-0.92-4.48-0.92-3.12 0-5.76 1.08-7.92 3.24-2.1333 2.1867-3.2 4.92-3.2 8.2s1.0667 6.0133 3.2 8.2c2.16 2.16 4.8 3.24 7.92 3.24 2.8533 0 5.2267-0.8 7.12-2.4s2.987-3.8 3.28-6.6h-10.4v-3.44h13.88c0.133 0.7467 0.2 1.4667 0.2 2.16zm12.436 13.8c-2.88 0-5.253-0.9867-7.12-2.96s-2.8-4.4667-2.8-7.48c0-2.9867 0.907-5.4667 2.72-7.44 1.813-2 4.133-3 6.96-3 2.907 0 5.213 0.9467 6.92 2.84 1.733 1.8667 2.6 4.4933 2.6 7.88l-0.04 0.4h-15.4c0.053 1.92 0.693 3.4667 1.92 4.64s2.693 1.76 4.4 1.76c2.347 0 4.187-1.1733 5.52-3.52l3.28 1.6c-0.88 1.6533-2.107 2.9467-3.68 3.88-1.547 0.9333-3.307 1.4-5.28 1.4zm-5.88-12.8h11.24c-0.107-1.36-0.667-2.48-1.68-3.36-0.987-0.9067-2.32-1.36-4-1.36-1.387 0-2.587 0.4267-3.6 1.28-0.987 0.8533-1.64 2-1.96 3.44zm25.699 12.48c-1.6 0-2.933-0.4933-4-1.48-1.04-0.9867-1.573-2.36-1.6-4.12v-10.96h-3.44v-3.36h3.44v-6h3.68v6h4.8v3.36h-4.8v9.76c0 1.3067 0.254 2.2 0.76 2.68 0.507 0.4533 1.08 0.68 1.72 0.68 0.294 0 0.574-0.0267 0.84-0.08 0.294-0.08 0.56-0.1733 0.8-0.28l1.16 3.28c-0.96 0.3467-2.08 0.52-3.36 0.52zm19.49-11.92v11.6h-3.68v-28.64h9.76c2.48 0 4.587 0.8267 6.32 2.48 1.76 1.6533 2.64 3.6667 2.64 6.04 0 2.4267-0.88 4.4533-2.64 6.08-1.707 1.6267-3.813 2.44-6.32 2.44h-6.08zm0-13.52v10h6.16c1.467 0 2.68-0.4933 3.64-1.48 0.987-0.9867 1.48-2.16 1.48-3.52 0-1.3333-0.493-2.4933-1.48-3.48-0.96-1.0133-2.173-1.52-3.64-1.52h-6.16zm35.778 5.52-12.28 28.24h-3.8l4.56-9.88-8.08-18.36h4l5.84 14.08h0.08l5.68-14.08h4zm10.162 19.92c-1.6 0-2.933-0.4933-4-1.48-1.04-0.9867-1.573-2.36-1.6-4.12v-10.96h-3.44v-3.36h3.44v-6h3.68v6h4.8v3.36h-4.8v9.76c0 1.3067 0.253 2.2 0.76 2.68 0.507 0.4533 1.08 0.68 1.72 0.68 0.293 0 0.573-0.0267 0.84-0.08 0.293-0.08 0.56-0.1733 0.8-0.28l1.16 3.28c-0.96 0.3467-2.08 0.52-3.36 0.52zm6.576-28.96h3.68v9.04l-0.16 2.72h0.16c0.56-0.96 1.413-1.76 2.56-2.4 1.173-0.64 2.387-0.96 3.64-0.96 2.4 0 4.24 0.6933 5.52 2.08 1.307 1.36 1.96 3.3067 1.96 5.84v12.32h-3.68v-11.6c0-3.52-1.56-5.28-4.68-5.28-1.493 0-2.76 0.6267-3.8 1.88-1.013 1.2267-1.52 2.6667-1.52 4.32v10.68h-3.68v-28.64zm20.56 18.84c0-3.0133 0.946-5.5067 2.84-7.48 1.92-1.9733 4.333-2.96 7.24-2.96 2.906 0 5.306 0.9867 7.2 2.96 1.92 1.9733 2.88 4.4667 2.88 7.48 0 3.04-0.96 5.5333-2.88 7.48-1.894 1.9733-4.294 2.96-7.2 2.96-2.907 0-5.32-0.9867-7.24-2.96-1.894-1.9733-2.84-4.4667-2.84-7.48zm3.68 0c0 2.1067 0.613 3.8133 1.84 5.12 1.226 1.3067 2.746 1.96 4.56 1.96 1.813 0 3.333-0.6533 4.56-1.96 1.226-1.3067 1.84-3.0133 1.84-5.12 0-2.08-0.614-3.7733-1.84-5.08-1.254-1.3333-2.774-2-4.56-2-1.787 0-3.307 0.6667-4.56 2-1.227 1.3067-1.84 3-1.84 5.08zm19.432-9.8h3.52v2.72h0.16c0.56-0.96 1.413-1.76 2.56-2.4 1.173-0.64 2.386-0.96 3.64-0.96 2.4 0 4.24 0.6933 5.52 2.08 1.306 1.36 1.96 3.3067 1.96 5.84v12.32h-3.68v-12.08c-0.08-3.2-1.694-4.8-4.84-4.8-1.467 0-2.694 0.6-3.68 1.8-0.987 1.1733-1.48 2.5867-1.48 4.24v10.84h-3.68v-19.6zm43.807 20.24c-4.24 0-7.786-1.4267-10.64-4.28-2.826-2.8533-4.24-6.4133-4.24-10.68s1.414-7.8133 4.24-10.64c2.827-2.88 6.374-4.32 10.64-4.32 4.32 0 7.827 1.56 10.52 4.68l-2.64 2.56c-2.053-2.48-4.68-3.72-7.88-3.72-3.173 0-5.826 1.0667-7.96 3.2-2.106 2.1067-3.16 4.8533-3.16 8.24s1.054 6.1333 3.16 8.24c2.134 2.1333 4.787 3.2 7.96 3.2 3.334 0 6.227-1.4 8.68-4.2l2.68 2.6c-1.36 1.6267-3.026 2.8933-5 3.8-1.973 0.88-4.093 1.32-6.36 1.32zm13.12-10.44c0-3.0133 0.946-5.5067 2.84-7.48 1.92-1.9733 4.333-2.96 7.24-2.96 2.906 0 5.306 0.9867 7.2 2.96 1.92 1.9733 2.88 4.4667 2.88 7.48 0 3.04-0.96 5.5333-2.88 7.48-1.894 1.9733-4.294 2.96-7.2 2.96-2.907 0-5.32-0.9867-7.24-2.96-1.894-1.9733-2.84-4.4667-2.84-7.48zm3.68 0c0 2.1067 0.613 3.8133 1.84 5.12 1.226 1.3067 2.746 1.96 4.56 1.96 1.813 0 3.333-0.6533 4.56-1.96 1.226-1.3067 1.84-3.0133 1.84-5.12 0-2.08-0.614-3.7733-1.84-5.08-1.254-1.3333-2.774-2-4.56-2-1.787 0-3.307 0.6667-4.56 2-1.227 1.3067-1.84 3-1.84 5.08zm28.623 7.08c1.813 0 3.293-0.6533 4.44-1.96 1.2-1.3067 1.8-3.0133 1.8-5.12 0-2.0533-0.6-3.7467-1.8-5.08-1.174-1.3333-2.654-2-4.44-2-1.76 0-3.24 0.6667-4.44 2s-1.8 3.0267-1.8 5.08c0 2.08 0.6 3.7733 1.8 5.08 1.2 1.3333 2.68 2 4.44 2zm-0.6 3.36c-2.56 0-4.76-1.0133-6.6-3.04-1.814-2.0533-2.72-4.52-2.72-7.4s0.906-5.3467 2.72-7.4c1.84-2.0267 4.04-3.04 6.6-3.04 1.44 0 2.746 0.3067 3.92 0.92 1.2 0.6133 2.12 1.4267 2.76 2.44h0.16l-0.16-2.72v-9.04h3.68v28.64h-3.52v-2.72h-0.16c-0.64 1.0133-1.56 1.8267-2.76 2.44-1.174 0.6133-2.48 0.92-3.92 0.92zm23.451 0c-2.88 0-5.253-0.9867-7.12-2.96s-2.8-4.4667-2.8-7.48c0-2.9867 0.907-5.4667 2.72-7.44 1.813-2 4.133-3 6.96-3 2.907 0 5.213 0.9467 6.92 2.84 1.733 1.8667 2.6 4.4933 2.6 7.88l-0.04 0.4h-15.4c0.053 1.92 0.693 3.4667 1.92 4.64s2.693 1.76 4.4 1.76c2.347 0 4.187-1.1733 5.52-3.52l3.28 1.6c-0.88 1.6533-2.107 2.9467-3.68 3.88-1.547 0.9333-3.307 1.4-5.28 1.4zm-5.88-12.8h11.24c-0.107-1.36-0.667-2.48-1.68-3.36-0.987-0.9067-2.32-1.36-4-1.36-1.387 0-2.587 0.4267-3.6 1.28-0.987 0.8533-1.64 2-1.96 3.44z" fill-opacity=".6"/>
<path d="m50 25c0-13.807-11.193-25-25-25s-25 11.193-25 25 11.193 25 25 25 25-11.193 25-25z" fill="#601CFB"/>
<path d="m17.434 34.356h-0.418c-0.9627 0-1.729-0.285-2.299-0.855-0.57-0.5573-0.855-1.3173-0.855-2.28v-3.078c0-1.178-0.4687-1.767-1.406-1.767v-1.444c0.9373 0 1.406-0.589 1.406-1.767v-3.078c0-0.9627 0.285-1.7227 0.855-2.28 0.57-0.57 1.3363-0.855 2.299-0.855h0.418v1.444h-0.285c-1.1273 0-1.691 0.6397-1.691 1.919v3.154c-0.0127 1.1273-0.4497 1.843-1.311 2.147v0.076c0.8487 0.2787 1.2857 0.9753 1.311 2.09v3.211c0 1.2793 0.5637 1.919 1.691 1.919h0.285v1.444zm14.193 0v-1.444h0.285c1.1273 0 1.691-0.6397 1.691-1.919v-3.211c0.0253-1.1147 0.4623-1.8113 1.311-2.09v-0.076c-0.8614-0.304-1.2984-1.0197-1.311-2.147v-3.154c0-1.2793-0.5637-1.919-1.691-1.919h-0.285v-1.444h0.418c0.9626 0 1.729 0.285 2.299 0.855 0.57 0.5573 0.855 1.3173 0.855 2.28v3.078c0 1.178 0.4686 1.767 1.406 1.767v1.444c-0.9374 0-1.406 0.589-1.406 1.767v3.078c0 0.9627-0.285 1.7227-0.855 2.28-0.57 0.57-1.3364 0.855-2.299 0.855h-0.418z" fill="#fff"/>
<path d="m25.839 18.396-5.643 13.604h-1.634l5.643-13.604h1.634zm4.6758 0-5.643 13.604h-1.634l5.643-13.604h1.634z"/>
</svg>

<svg width="290" height="50" viewBox="0 0 400 50" fill="none" xmlns="http://www.w3.org/2000/svg">
    <path d="M104.44 25.84C104.44 29.84 103.253 33.0267 100.88 35.4C98.2133 38.2267 94.7067 39.64 90.36 39.64C86.2 39.64 82.68 38.2 79.8 35.32C76.92 32.44 75.48 28.8933 75.48 24.68C75.48 20.4667 76.92 16.92 79.8 14.04C82.68 11.16 86.2 9.72 90.36 9.72C92.4667 9.72 94.4533 10.0933 96.32 10.84C98.1867 11.5867 99.72 12.64 100.92 14L98.28 16.64C97.4 15.5733 96.2533 14.7467 94.84 14.16C93.4533 13.5467 91.96 13.24 90.36 13.24C87.24 13.24 84.6 14.32 82.44 16.48C80.3067 18.6667 79.24 21.4 79.24 24.68C79.24 27.96 80.3067 30.6933 82.44 32.88C84.6 35.04 87.24 36.12 90.36 36.12C93.2133 36.12 95.5867 35.32 97.48 33.72C99.3733 32.12 100.467 29.92 100.76 27.12H90.36V23.68H104.24C104.373 24.4267 104.44 25.1467 104.44 25.84ZM116.876 39.64C113.996 39.64 111.623 38.6533 109.756 36.68C107.889 34.7067 106.956 32.2133 106.956 29.2C106.956 26.2133 107.863 23.7333 109.676 21.76C111.489 19.76 113.809 18.76 116.636 18.76C119.543 18.76 121.849 19.7067 123.556 21.6C125.289 23.4667 126.156 26.0933 126.156 29.48L126.116 29.88H110.716C110.769 31.8 111.409 33.3467 112.636 34.52C113.863 35.6933 115.329 36.28 117.036 36.28C119.383 36.28 121.223 35.1067 122.556 32.76L125.836 34.36C124.956 36.0133 123.729 37.3067 122.156 38.24C120.609 39.1733 118.849 39.64 116.876 39.64ZM110.996 26.84H122.236C122.129 25.48 121.569 24.36 120.556 23.48C119.569 22.5733 118.236 22.12 116.556 22.12C115.169 22.12 113.969 22.5467 112.956 23.4C111.969 24.2533 111.316 25.4 110.996 26.84ZM136.695 39.32C135.095 39.32 133.762 38.8267 132.695 37.84C131.655 36.8533 131.122 35.48 131.095 33.72V22.76H127.655V19.4H131.095V13.4H134.775V19.4H139.575V22.76H134.775V32.52C134.775 33.8267 135.029 34.72 135.535 35.2C136.042 35.6533 136.615 35.88 137.255 35.88C137.549 35.88 137.829 35.8533 138.095 35.8C138.389 35.72 138.655 35.6267 138.895 35.52L140.055 38.8C139.095 39.1467 137.975 39.32 136.695 39.32ZM156.185 27.4V39H152.505V10.36H162.265C164.745 10.36 166.852 11.1867 168.585 12.84C170.345 14.4933 171.225 16.5067 171.225 18.88C171.225 21.3067 170.345 23.3333 168.585 24.96C166.878 26.5867 164.772 27.4 162.265 27.4H156.185ZM156.185 13.88V23.88H162.345C163.812 23.88 165.025 23.3867 165.985 22.4C166.972 21.4133 167.465 20.24 167.465 18.88C167.465 17.5467 166.972 16.3867 165.985 15.4C165.025 14.3867 163.812 13.88 162.345 13.88H156.185ZM191.963 19.4L179.683 47.64H175.883L180.443 37.76L172.363 19.4H176.363L182.203 33.48H182.283L187.963 19.4H191.963ZM202.125 39.32C200.525 39.32 199.192 38.8267 198.125 37.84C197.085 36.8533 196.552 35.48 196.525 33.72V22.76H193.085V19.4H196.525V13.4H200.205V19.4H205.005V22.76H200.205V32.52C200.205 33.8267 200.458 34.72 200.965 35.2C201.472 35.6533 202.045 35.88 202.685 35.88C202.978 35.88 203.258 35.8533 203.525 35.8C203.818 35.72 204.085 35.6267 204.325 35.52L205.485 38.8C204.525 39.1467 203.405 39.32 202.125 39.32ZM208.701 10.36H212.381V19.4L212.221 22.12H212.381C212.941 21.16 213.794 20.36 214.941 19.72C216.114 19.08 217.328 18.76 218.581 18.76C220.981 18.76 222.821 19.4533 224.101 20.84C225.408 22.2 226.061 24.1467 226.061 26.68V39H222.381V27.4C222.381 23.88 220.821 22.12 217.701 22.12C216.208 22.12 214.941 22.7467 213.901 24C212.888 25.2267 212.381 26.6667 212.381 28.32V39H208.701V10.36ZM229.261 29.2C229.261 26.1867 230.207 23.6933 232.101 21.72C234.021 19.7467 236.434 18.76 239.341 18.76C242.247 18.76 244.647 19.7467 246.541 21.72C248.461 23.6933 249.421 26.1867 249.421 29.2C249.421 32.24 248.461 34.7333 246.541 36.68C244.647 38.6533 242.247 39.64 239.341 39.64C236.434 39.64 234.021 38.6533 232.101 36.68C230.207 34.7067 229.261 32.2133 229.261 29.2ZM232.941 29.2C232.941 31.3067 233.554 33.0133 234.781 34.32C236.007 35.6267 237.527 36.28 239.341 36.28C241.154 36.28 242.674 35.6267 243.901 34.32C245.127 33.0133 245.741 31.3067 245.741 29.2C245.741 27.12 245.127 25.4267 243.901 24.12C242.647 22.7867 241.127 22.12 239.341 22.12C237.554 22.12 236.034 22.7867 234.781 24.12C233.554 25.4267 232.941 27.12 232.941 29.2ZM252.373 19.4H255.893V22.12H256.053C256.613 21.16 257.466 20.36 258.613 19.72C259.786 19.08 260.999 18.76 262.253 18.76C264.653 18.76 266.493 19.4533 267.773 20.84C269.079 22.2 269.733 24.1467 269.733 26.68V39H266.053V26.92C265.973 23.72 264.359 22.12 261.213 22.12C259.746 22.12 258.519 22.72 257.533 23.92C256.546 25.0933 256.053 26.5067 256.053 28.16V39H252.373V19.4ZM296.18 39.64C291.94 39.64 288.394 38.2133 285.54 35.36C282.714 32.5067 281.3 28.9467 281.3 24.68C281.3 20.4133 282.714 16.8667 285.54 14.04C288.367 11.16 291.914 9.72 296.18 9.72C300.5 9.72 304.007 11.28 306.7 14.4L304.06 16.96C302.007 14.48 299.38 13.24 296.18 13.24C293.007 13.24 290.354 14.3067 288.22 16.44C286.114 18.5467 285.06 21.2933 285.06 24.68C285.06 28.0667 286.114 30.8133 288.22 32.92C290.354 35.0533 293.007 36.12 296.18 36.12C299.514 36.12 302.407 34.72 304.86 31.92L307.54 34.52C306.18 36.1467 304.514 37.4133 302.54 38.32C300.567 39.2 298.447 39.64 296.18 39.64ZM309.3 29.2C309.3 26.1867 310.246 23.6933 312.14 21.72C314.06 19.7467 316.473 18.76 319.38 18.76C322.286 18.76 324.686 19.7467 326.58 21.72C328.5 23.6933 329.46 26.1867 329.46 29.2C329.46 32.24 328.5 34.7333 326.58 36.68C324.686 38.6533 322.286 39.64 319.38 39.64C316.473 39.64 314.06 38.6533 312.14 36.68C310.246 34.7067 309.3 32.2133 309.3 29.2ZM312.98 29.2C312.98 31.3067 313.593 33.0133 314.82 34.32C316.046 35.6267 317.566 36.28 319.38 36.28C321.193 36.28 322.713 35.6267 323.94 34.32C325.166 33.0133 325.78 31.3067 325.78 29.2C325.78 27.12 325.166 25.4267 323.94 24.12C322.686 22.7867 321.166 22.12 319.38 22.12C317.593 22.12 316.073 22.7867 314.82 24.12C313.593 25.4267 312.98 27.12 312.98 29.2ZM341.603 36.28C343.416 36.28 344.896 35.6267 346.043 34.32C347.243 33.0133 347.843 31.3067 347.843 29.2C347.843 27.1467 347.243 25.4533 346.043 24.12C344.869 22.7867 343.389 22.12 341.603 22.12C339.843 22.12 338.363 22.7867 337.163 24.12C335.963 25.4533 335.363 27.1467 335.363 29.2C335.363 31.28 335.963 32.9733 337.163 34.28C338.363 35.6133 339.843 36.28 341.603 36.28ZM341.003 39.64C338.443 39.64 336.243 38.6267 334.403 36.6C332.589 34.5467 331.683 32.08 331.683 29.2C331.683 26.32 332.589 23.8533 334.403 21.8C336.243 19.7733 338.443 18.76 341.003 18.76C342.443 18.76 343.749 19.0667 344.923 19.68C346.123 20.2933 347.043 21.1067 347.683 22.12H347.843L347.683 19.4V10.36H351.363V39H347.843V36.28H347.683C347.043 37.2933 346.123 38.1067 344.923 38.72C343.749 39.3333 342.443 39.64 341.003 39.64ZM364.454 39.64C361.574 39.64 359.201 38.6533 357.334 36.68C355.467 34.7067 354.534 32.2133 354.534 29.2C354.534 26.2133 355.441 23.7333 357.254 21.76C359.067 19.76 361.387 18.76 364.214 18.76C367.121 18.76 369.427 19.7067 371.134 21.6C372.867 23.4667 373.734 26.0933 373.734 29.48L373.694 29.88H358.294C358.347 31.8 358.987 33.3467 360.214 34.52C361.441 35.6933 362.907 36.28 364.614 36.28C366.961 36.28 368.801 35.1067 370.134 32.76L373.414 34.36C372.534 36.0133 371.307 37.3067 369.734 38.24C368.187 39.1733 366.427 39.64 364.454 39.64ZM358.574 26.84H369.814C369.707 25.48 369.147 24.36 368.134 23.48C367.147 22.5733 365.814 22.12 364.134 22.12C362.747 22.12 361.547 22.5467 360.534 23.4C359.547 24.2533 358.894 25.4 358.574 26.84Z" fill="black" fill-opacity="0.6"/>
    <path d="M50 25C50 11.1929 38.8071 0 25 0C11.1929 0 0 11.1929 0 25C0 38.8071 11.1929 50 25 50C38.8071 50 50 38.8071 50 25Z" fill="#601CFB"/>
    <path d="M17.434 34.356H17.016C16.0533 34.356 15.287 34.071 14.717 33.501C14.147 32.9437 13.862 32.1837 13.862 31.221V28.143C13.862 26.965 13.3933 26.376 12.456 26.376V24.932C13.3933 24.932 13.862 24.343 13.862 23.165V20.087C13.862 19.1243 14.147 18.3643 14.717 17.807C15.287 17.237 16.0533 16.952 17.016 16.952H17.434V18.396H17.149C16.0217 18.396 15.458 19.0357 15.458 20.315V23.469C15.4453 24.5963 15.0083 25.312 14.147 25.616V25.692C14.9957 25.9707 15.4327 26.6673 15.458 27.782V30.993C15.458 32.2723 16.0217 32.912 17.149 32.912H17.434V34.356ZM31.6266 34.356V32.912H31.9116C33.0389 32.912 33.6026 32.2723 33.6026 30.993V27.782C33.6279 26.6673 34.0649 25.9707 34.9136 25.692V25.616C34.0522 25.312 33.6152 24.5963 33.6026 23.469V20.315C33.6026 19.0357 33.0389 18.396 31.9116 18.396H31.6266V16.952H32.0446C33.0072 16.952 33.7736 17.237 34.3436 17.807C34.9136 18.3643 35.1986 19.1243 35.1986 20.087V23.165C35.1986 24.343 35.6672 24.932 36.6046 24.932V26.376C35.6672 26.376 35.1986 26.965 35.1986 28.143V31.221C35.1986 32.1837 34.9136 32.9437 34.3436 33.501C33.7736 34.071 33.0072 34.356 32.0446 34.356H31.6266Z" fill="white"/>
    <path d="M25.8388 18.396L20.1958 32H18.5618L24.2048 18.396H25.8388ZM30.5146 18.396L24.8716 32H23.2376L28.8806 18.396H30.5146Z" fill="black"/>
</svg>
